site/_assets/img/01.svg

<svg viewBox="0 0 500 500" xmlns="http://www.w3.org/2000/svg">
<path d="M76.3 475H250.9C275.2 475 291.4 471.4 291.4 464.2C291.4 457 274.3 452.5 250.9 452.5C215.8 452.5 205.9 440.8 205.9 415.6V63.7C205.9 52.9 212.2 47.5 224.8 47.5H257.2C310.3 47.5 355.3 84.3999 355.3 163.6C355.3 232.9 304.9 268 269.8 268C250.9 268 239.2 271.6 239.2 279.7C239.2 287.8 251.8 289.6 269.8 289.6H286.9C372.4 289.6 457 247.3 457 148.3C457 70 397.6 25 312.1 25H73.6001C56.5001 25 43.0001 29.5 43.0001 36.7C43.0001 43.9 55.6 47.5 72.7 47.5C92.5 47.5 104.2 55.6 104.2 79.9V415.6C104.2 442.6 97.0001 452.5 73.6001 452.5C57.4001 452.5 43.0001 457 43.0001 464.2C43.0001 471.4 57.4 475 76.3 475Z" fill="#FFFFFF"/>
</svg>

<svg viewBox="0 0 500 500" xmlns="http://www.w3.org/2000/svg"><path d="m76.3 475h174.6c24.3 0 40.5-3.6 40.5-10.8s-17.1-11.7-40.5-11.7c-35.1 0-45-11.7-45-36.9v-351.9c0-10.8 6.3-16.2 18.9-16.2h32.4c53.1 0 98.1 36.8999 98.1 116.1 0 69.3-50.4 104.4-85.5 104.4-18.9 0-30.6 3.6-30.6 11.7s12.6 9.9 30.6 9.9h17.1c85.5 0 170.1-42.3 170.1-141.3 0-78.3-59.4-123.3-144.9-123.3h-238.4999c-17.1 0-30.6 4.5-30.6 11.7s12.5999 10.8 29.6999 10.8c19.8 0 31.5 8.1 31.5 32.4v335.7c0 27-7.1999 36.9-30.5999 36.9-16.2 0-30.6 4.5-30.6 11.7s14.3999 10.8 33.2999 10.8z" fill="#fafafa"/></svg>
